X:1
T:Moon and Seven Stars
R:Jig
M:6/8
K:D
A|\
"D"d2A AGF|"G"GAB "D"A2A|"G"Bcd efg|"A"fed cBA|
"D"d2A AGF|"G"GAB "D"A2A|"G"Bcd efg|1"A"cdc "D"d2:|2"A"cdc "D"d3||
"A"e2A ABA|efg "D"f3|"A"efg "D"fed|"E"cdB "A"A2 A|
"G"BGB "D"A2 A|"G"BGB "D"A2 A|"G"Bcd efg|1"A"cdc "D"d3:|2"A"cdc "D"d3|]
